;FLAVOR:Marlin
;TIME:1029
;Filament used: 0.652955m
;Layer height: 0.2
;MINX:51.971
;MINY:86
;MINZ:0.2
;MAXX:165.334
;MAXY:128.5
;MAXZ:6
;Generated with Cura_SteamEngine main
M82 ;absolute extrusion mode
; Ender 3 Custom Start G-code
G92 E0 ; Reset Extruder
G28 ; Home all axes
M104 S175 ; Start heating up the nozzle most of the way
M190 S60 ; Start heating the bed, wait until target temperature reached
M109 S200 ; Finish heating the nozzle
G1 Z2.0 F3000 ; Move Z Axis up little to prevent scratching of Heat Bed
G1 X0.1 Y20 Z0.3 F5000.0 ; Move to start position
G1 X0.1 Y200.0 Z0.3 F1500.0 E15 ; Draw the first line
G1 X0.4 Y200.0 Z0.3 F5000.0 ; Move to side a little
G1 X0.4 Y20 Z0.3 F1500.0 E30 ; Draw the second line
G92 E0 ; Reset Extruder
G1 Z2.0 F3000 ; Move Z Axis up little to prevent scratching of Heat Bed
G1 X5 Y20 Z0.3 F5000.0 ; Move over to prevent blob squish
G92 E0
G92 E0
G1 F1500 E-6.5
;LAYER_COUNT:30
;LAYER:0
M107
G0 F6000 X57.378 Y93.042 Z0.2
G0 X51.972 Y103.054
;TYPE:SKIRT
G1 F1500 E0
G1 F1200 X51.981 Y102.365 E0.02292
G1 X52.033 Y101.429 E0.0541
G1 X52.165 Y100.5 E0.08531
G1 X52.375 Y99.586 E0.1165
G1 X52.663 Y98.694 E0.14767
G1 X53.025 Y97.829 E0.17886
G1 X53.46 Y96.998 E0.21006
G1 X53.964 Y96.207 E0.24125
G1 X54.534 Y95.462 E0.27245
G1 X55.165 Y94.768 E0.30365
G1 X55.853 Y94.13 E0.33486
G1 X56.592 Y93.554 E0.36602
G1 X57.378 Y93.042 E0.39722
G1 X58.205 Y92.599 E0.42843
G1 X59.067 Y92.229 E0.45963
G1 X59.957 Y91.933 E0.49082
G1 X60.869 Y91.714 E0.52202
G1 X61.796 Y91.573 E0.5532
G1 X62.672 Y91.513 E0.58241
G1 X63.301 Y91.5 E0.60333
G1 X80.564 Y91.5 E1.1775
G1 X83.172 Y91.463 E1.26425
G1 X85.693 Y91.356 E1.34818
G1 X88.188 Y91.179 E1.43137
G1 X90.688 Y90.931 E1.51493
G1 X93.181 Y90.612 E1.59852
G1 X95.674 Y90.221 E1.68245
G1 X98.164 Y89.758 E1.76669
G1 X100.628 Y89.228 E1.85052
G1 X103.03 Y88.639 E1.93278
G1 X105.486 Y87.963 E2.0175
G1 X107.919 Y87.218 E2.10213
G1 X109.206 Y86.785 E2.1473
G1 X109.985 Y86.535 E2.17451
G1 X110.889 Y86.287 E2.20568
G1 X111.811 Y86.117 E2.23687
G1 X113.035 Y86.013 E2.27772
G1 X113.664 Y86 E2.29865
G1 X153.785 Y86.001 E3.63308
G1 X154.483 Y86.011 E3.6563
G1 X155.419 Y86.065 E3.68748
G1 X156.347 Y86.197 E3.71866
G1 X157.261 Y86.409 E3.74986
G1 X158.153 Y86.698 E3.78105
G1 X159.018 Y87.061 E3.81225
G1 X159.848 Y87.497 E3.84343
G1 X160.639 Y88.002 E3.87465
G1 X161.383 Y88.573 E3.90584
G1 X162.076 Y89.205 E3.93704
G1 X162.713 Y89.893 E3.96822
G1 X163.288 Y90.634 E3.99942
G1 X163.799 Y91.42 E4.0306
G1 X164.241 Y92.248 E4.06181
G1 X164.61 Y93.11 E4.093
G1 X164.905 Y94 E4.12419
G1 X165.123 Y94.912 E4.15537
G1 X165.263 Y95.84 E4.18659
G1 X165.321 Y96.701 E4.21529
G1 X165.334 Y97.33 E4.23622
G1 X165.333 Y111.4 E4.70419
G1 X165.324 Y112.127 E4.72837
G1 X165.273 Y113.064 E4.75958
G1 X165.141 Y113.992 E4.79076
G1 X164.932 Y114.906 E4.82194
G1 X164.645 Y115.799 E4.85314
G1 X164.283 Y116.665 E4.88436
G1 X163.849 Y117.496 E4.91554
G1 X163.345 Y118.287 E4.94673
G1 X162.776 Y119.032 E4.97791
G1 X162.145 Y119.727 E5.00913
G1 X161.458 Y120.365 E5.04032
G1 X160.719 Y120.942 E5.0715
G1 X159.933 Y121.454 E5.1027
G1 X159.107 Y121.897 E5.13388
G1 X158.245 Y122.269 E5.1651
G1 X157.356 Y122.565 E5.19627
G1 X156.444 Y122.785 E5.22747
G1 X155.517 Y122.926 E5.25866
G1 X154.633 Y122.987 E5.28813
G1 X154.004 Y123 E5.30905
G1 X136.741 Y123 E5.88322
G1 X134.133 Y123.037 E5.96997
G1 X131.612 Y123.144 E6.0539
G1 X129.117 Y123.321 E6.13709
G1 X126.617 Y123.569 E6.22065
G1 X124.124 Y123.888 E6.30424
G1 X121.631 Y124.279 E6.38817
G1 X119.141 Y124.742 E6.47241
G1 X116.677 Y125.272 E6.55624
G1 X114.275 Y125.861 E6.6385
G1 X111.819 Y126.537 E6.72322
G1 X109.386 Y127.282 E6.80785
G1 X108.103 Y127.714 E6.85288
G1 X107.325 Y127.964 E6.88006
G1 X106.421 Y128.212 E6.91124
G1 X105.499 Y128.383 E6.94242
G1 X104.27 Y128.487 E6.98345
G1 X103.641 Y128.5 E7.00437
G1 X63.536 Y128.499 E8.33827
G1 X62.838 Y128.49 E8.36149
G1 X61.902 Y128.438 E8.39267
G1 X60.973 Y128.306 E8.42388
G1 X60.059 Y128.096 E8.45507
G1 X59.166 Y127.809 E8.48627
G1 X58.301 Y127.446 E8.51747
G1 X57.47 Y127.012 E8.54865
G1 X56.679 Y126.508 E8.57984
G1 X55.934 Y125.938 E8.61104
G1 X55.24 Y125.307 E8.64224
G1 X54.603 Y124.62 E8.6734
G1 X54.026 Y123.88 E8.70461
G1 X53.514 Y123.094 E8.73581
G1 X53.071 Y122.267 E8.76701
G1 X52.7 Y121.406 E8.7982
G1 X52.404 Y120.516 E8.82939
G1 X52.185 Y119.604 E8.86059
G1 X52.044 Y118.677 E8.89177
G1 X51.984 Y117.788 E8.92141
G1 X51.971 Y117.158 E8.94237
G1 X51.972 Y103.054 E9.41147
G0 F6000 X52.372 Y103.06
G1 F1200 X52.381 Y102.371 E9.43439
G1 X52.433 Y101.451 E9.46504
G1 X52.564 Y100.54 E9.49565
G1 X52.775 Y99.644 E9.52626
G1 X53.062 Y98.769 E9.55689
G1 X53.424 Y97.923 E9.5875
G1 X53.858 Y97.111 E9.61812
G1 X54.36 Y96.339 E9.64875
G1 X54.928 Y95.615 E9.67935
G1 X55.557 Y94.942 E9.70999
G1 X56.242 Y94.327 E9.74061
G1 X56.977 Y93.773 E9.77122
G1 X57.758 Y93.285 E9.80185
G1 X58.578 Y92.866 E9.83248
G1 X59.431 Y92.521 E9.86309
G1 X60.311 Y92.25 E9.89371
G1 X61.211 Y92.058 E9.92432
G1 X62.125 Y91.944 E9.95495
G1 X62.683 Y91.913 E9.97354
G1 X63.301 Y91.9 E9.9941
G1 X80.57 Y91.9 E10.56847
G1 X83.195 Y91.863 E10.65579
G1 X85.703 Y91.756 E10.73928
G1 X88.223 Y91.578 E10.8233
G1 X90.738 Y91.329 E10.90736
G1 X93.227 Y91.01 E10.99082
G1 X95.779 Y90.609 E11.07674
G1 X98.21 Y90.157 E11.15899
G1 X100.702 Y89.621 E11.24377
G1 X103.159 Y89.019 E11.3279
G1 X105.604 Y88.346 E11.41225
G1 X108.015 Y87.608 E11.49611
G1 X109.328 Y87.166 E11.54219
G1 X110.107 Y86.916 E11.5694
G1 X110.995 Y86.673 E11.60002
G1 X111.901 Y86.508 E11.63065
G1 X113.046 Y86.413 E11.66886
G1 X113.664 Y86.4 E11.68942
G1 X153.627 Y86.4 E13.0186
G1 X154.477 Y86.411 E13.04687
G1 X155.396 Y86.464 E13.07749
G1 X156.307 Y86.597 E13.10811
G1 X157.203 Y86.808 E13.13873
G1 X158.077 Y87.096 E13.16933
G1 X158.924 Y87.459 E13.19998
G1 X159.735 Y87.894 E13.23059
G1 X160.505 Y88.398 E13.2612
G1 X161.229 Y88.967 E13.29183
G1 X161.901 Y89.597 E13.32247
G1 X162.516 Y90.282 E13.35308
G1 X163.069 Y91.018 E13.3837
G1 X163.556 Y91.799 E13.41432
G1 X163.973 Y92.62 E13.44494
G1 X164.318 Y93.474 E13.47558
G1 X164.587 Y94.354 E13.50618
G1 X164.779 Y95.255 E13.53682
G1 X164.892 Y96.168 E13.56742
G1 X164.921 Y96.712 E13.58554
G1 X164.934 Y97.33 E13.6061
G1 X164.933 Y111.395 E14.0739
G1 X164.924 Y112.122 E14.09809
G1 X164.873 Y113.041 E14.1287
G1 X164.742 Y113.953 E14.15934
G1 X164.532 Y114.849 E14.18995
G1 X164.246 Y115.724 E14.22057
G1 X163.885 Y116.571 E14.25119
G1 X163.451 Y117.383 E14.28182
G1 X162.949 Y118.155 E14.31244
G1 X162.381 Y118.88 E14.34308
G1 X161.753 Y119.553 E14.37369
G1 X161.069 Y120.169 E14.40431
G1 X160.334 Y120.723 E14.43492
G1 X159.554 Y121.212 E14.46554
G1 X158.734 Y121.631 E14.49617
G1 X157.881 Y121.977 E14.52678
G1 X157.001 Y122.248 E14.55741
G1 X156.101 Y122.441 E14.58802
G1 X155.187 Y122.556 E14.61866
G1 X154.622 Y122.587 E14.63748
G1 X154.004 Y122.6 E14.65804
G1 X136.735 Y122.6 E15.23241
G1 X134.11 Y122.637 E15.31973
G1 X131.602 Y122.744 E15.40322
G1 X129.082 Y122.922 E15.48725
G1 X126.567 Y123.171 E15.5713
G1 X124.078 Y123.49 E15.65476
G1 X121.526 Y123.891 E15.74069
G1 X119.095 Y124.343 E15.82293
G1 X116.603 Y124.879 E15.90771
G1 X114.146 Y125.481 E15.99184
G1 X111.701 Y126.154 E16.07619
G1 X109.29 Y126.892 E16.16005
G1 X107.981 Y127.333 E16.20599
G1 X107.203 Y127.583 E16.23317
G1 X106.315 Y127.826 E16.2638
G1 X105.409 Y127.991 E16.29442
G1 X104.259 Y128.087 E16.33281
G1 X103.641 Y128.1 E16.35337
G1 X63.541 Y128.099 E17.6871
G1 X62.843 Y128.09 E17.71031
G1 X61.924 Y128.038 E17.74093
G1 X61.013 Y127.907 E17.77154
G1 X60.117 Y127.697 E17.80215
G1 X59.242 Y127.41 E17.83278
G1 X58.395 Y127.048 E17.86341
G1 X57.583 Y126.614 E17.89404
G1 X56.812 Y126.112 E17.92464
G1 X56.087 Y125.544 E17.95527
G1 X55.414 Y124.915 E17.98591
G1 X54.799 Y124.231 E18.0165
G1 X54.245 Y123.496 E18.04712
G1 X53.757 Y122.715 E18.07775
G1 X53.338 Y121.895 E18.10837
G1 X52.992 Y121.042 E18.13899
G1 X52.722 Y120.162 E18.1696
G1 X52.529 Y119.261 E18.20025
G1 X52.415 Y118.348 E18.23085
G1 X52.384 Y117.777 E18.24987
G1 X52.371 Y117.158 E18.27047
G1 X52.372 Y103.06 E18.73937
G0 F6000 X52.772 Y103.065
G1 F1200 X52.781 Y102.376 E18.76229
G1 X52.833 Y101.474 E18.79234
G1 X52.964 Y100.581 E18.82236
G1 X53.174 Y99.702 E18.85241
G1 X53.46 Y98.846 E18.88243
G1 X53.822 Y98.018 E18.91249
G1 X54.255 Y97.226 E18.94251
G1 X54.756 Y96.475 E18.97254
G1 X55.322 Y95.771 E19.00258
G1 X55.948 Y95.12 E19.03262
G1 X56.63 Y94.527 E19.06268
G1 X57.361 Y93.997 E19.09271
G1 X58.135 Y93.533 E19.12272
G1 X58.948 Y93.14 E19.15276
G1 X59.793 Y92.82 E19.18281
G1 X60.663 Y92.576 E19.21286
G1 X61.55 Y92.41 E19.24288
G1 X62.694 Y92.313 E19.28106
G1 X63.301 Y92.3 E19.30126
G1 X80.576 Y92.3 E19.87583
G1 X83.182 Y92.263 E19.96251
G1 X85.747 Y92.154 E20.0479
G1 X88.254 Y91.976 E20.13149
G1 X90.795 Y91.725 E20.21642
G1 X93.303 Y91.404 E20.30052
G1 X95.808 Y91.01 E20.38486
G1 X98.295 Y90.548 E20.46899
G1 X100.809 Y90.007 E20.55452
G1 X103.255 Y89.408 E20.63828
G1 X105.699 Y88.735 E20.72259
G1 X108.145 Y87.986 E20.80767
G1 X109.45 Y87.547 E20.85347
G1 X110.229 Y87.297 E20.88068
G1 X111.1 Y87.059 E20.91071
G1 X111.989 Y86.9 E20.94075
G1 X113.057 Y86.813 E20.97639
G1 X113.664 Y86.8 E20.99658
G1 X153.627 Y86.8 E22.32576
G1 X154.471 Y86.811 E22.35383
G1 X155.373 Y86.864 E22.38388
G1 X156.266 Y86.996 E22.41391
G1 X157.144 Y87.207 E22.44394
G1 X158 Y87.495 E22.47398
G1 X158.827 Y87.857 E22.50401
G1 X159.619 Y88.292 E22.53406
G1 X160.37 Y88.794 E22.5641
G1 X161.073 Y89.361 E22.59414
G1 X161.723 Y89.988 E22.62418
G1 X162.315 Y90.67 E22.65422
G1 X162.845 Y91.401 E22.68425
G1 X163.307 Y92.177 E22.71429
G1 X163.7 Y92.99 E22.74432
G1 X164.018 Y93.835 E22.77435
G1 X164.261 Y94.705 E22.80439
G1 X164.426 Y95.593 E22.83444
G1 X164.521 Y96.723 E22.87215
G1 X164.534 Y97.33 E22.89235
G1 X164.533 Y111.39 E23.35998
G1 X164.524 Y112.117 E23.38416
G1 X164.473 Y113.019 E23.41421
G1 X164.342 Y113.913 E23.44427
G1 X164.133 Y114.791 E23.47428
G1 X163.847 Y115.648 E23.50433
G1 X163.486 Y116.476 E23.53438
G1 X163.054 Y117.268 E23.56438
G1 X162.553 Y118.02 E23.59444
G1 X161.987 Y118.724 E23.62448
G1 X161.362 Y119.375 E23.6545
G1 X160.681 Y119.969 E23.68455
G1 X159.95 Y120.5 E23.7146
G1 X159.176 Y120.964 E23.74462
G1 X158.363 Y121.358 E23.77467
G1 X157.519 Y121.678 E23.80469
G1 X156.649 Y121.923 E23.83475
G1 X155.762 Y122.089 E23.86476
G1 X154.611 Y122.187 E23.90318
G1 X154.004 Y122.2 E23.92338
G1 X136.729 Y122.2 E24.49795
G1 X134.123 Y122.237 E24.58463
G1 X131.558 Y122.346 E24.67002
G1 X129.051 Y122.524 E24.75361
G1 X126.51 Y122.775 E24.83854
G1 X124.002 Y123.096 E24.92264
G1 X121.497 Y123.49 E25.00698
G1 X119.01 Y123.952 E25.09111
G1 X116.496 Y124.493 E25.17664
G1 X114.05 Y125.092 E25.2604
G1 X111.606 Y125.765 E25.34471
G1 X109.16 Y126.514 E25.42979
G1 X107.858 Y126.952 E25.47548
G1 X107.08 Y127.202 E25.50266
G1 X106.209 Y127.44 E25.53269
G1 X105.32 Y127.6 E25.56274
G1 X104.248 Y127.687 E25.59851
G1 X103.641 Y127.7 E25.6187
G1 X63.546 Y127.699 E26.95227
G1 X62.848 Y127.69 E26.97549
G1 X61.947 Y127.639 E27.0055
G1 X61.053 Y127.507 E27.03556
G1 X60.175 Y127.298 E27.06558
G1 X59.318 Y127.011 E27.09564
G1 X58.491 Y126.65 E27.12565
G1 X57.698 Y126.217 E27.1557
G1 X56.947 Y125.716 E27.18573
G1 X56.243 Y125.15 E27.21577
G1 X55.592 Y124.524 E27.24581
G1 X54.999 Y123.843 E27.27584
G1 X54.469 Y123.112 E27.30588
G1 X54.005 Y122.337 E27.33592
G1 X53.611 Y121.524 E27.36597
G1 X53.291 Y120.68 E27.39599
G1 X53.047 Y119.81 E27.42604
G1 X52.881 Y118.922 E27.45609
G1 X52.784 Y117.767 E27.49464
G1 X52.771 Y117.158 E27.5149
G1 X52.772 Y103.065 E27.98363
G1 F1500 E21.48363
;MESH:bottom.stl
G0 F6000 X62.306 Y103.065
G0 X103.371 Y116.9
;TYPE:WALL-INNER
G1 F1500 E27.98363
G1 F1200 X103.371 Y110 E28.21313
G1 X103.371 Y103.1 E28.44262
G1 X67.171 Y103.1 E29.64664
G1 X67.571 Y103.5 E29.66546
G1 X67.571 Y116.5 E30.09784
G1 X67.235 Y116.9 E30.11521
G1 X103.371 Y116.9 E31.3171
G0 F6000 X103.771 Y117.3
;TYPE:WALL-OUTER
G1 F1200 X103.771 Y110 E31.5599
G1 X103.771 Y102.7 E31.8027
G1 X67.971 Y102.7 E32.99341
G1 F1165 X67.722 Y102.712 E33.00195
G1 F1098.4 X67.472 Y102.724 E33.01105
G1 F1039 X67.222 Y102.737 E33.02066
G1 F985.6 X66.972 Y102.749 E33.0308
G1 F958.1 X65.427 Y102.751 E33.09516
G1 F954.3 X63.883 Y102.752 E33.15974
G1 F882.4 X63.557 Y102.793 E33.1746
G1 F820.5 X63.264 Y102.793 E33.18885
G1 X63.264 Y103.086 E33.2031
G1 F885.6 X63.221 Y103.5 E33.22186
G1 F960 X63.221 Y105.37 E33.29961
G1 X63.221 Y107.24 E33.37735
G1 F958.1 X63.221 Y109.11 E33.45525
G1 F956.2 X63.222 Y110.98 E33.53331
G1 X63.222 Y112.85 E33.61137
G1 F954.3 X63.222 Y114.72 E33.68958
G1 X63.223 Y116.59 E33.76779
G1 F882.4 X63.264 Y116.914 E33.78256
G1 F820.5 X63.264 Y117.207 E33.79682
G1 X63.557 Y117.207 E33.81107
G1 F885.6 X63.971 Y117.25 E33.82983
G1 F958.1 X65.515 Y117.249 E33.89415
G1 F954.3 X67.059 Y117.248 E33.95873
G1 F987.7 X67.362 Y117.265 E33.97099
G1 F1061.9 X67.667 Y117.282 E33.98247
G1 F1151.1 X67.971 Y117.3 E33.99303
G1 F1200 X103.771 Y117.3 E35.18374
G1 F1500 E28.68374
G0 F6000 X103.501 Y117.03
G0 X67.015 Y117
G1 F1500 E35.18374
G0 F6000 X67.015 Y116.749
G1 F954.3 X65.493 Y116.749 E35.2474
G1 F958.1 X63.971 Y116.75 E35.3108
G1 F885.6 X63.764 Y116.707 E35.32033
G1 F882.4 X63.722 Y116.544 E35.32795
G1 F954.3 X63.722 Y114.681 E35.40586
G1 X63.722 Y112.818 E35.48378
G1 F956.2 X63.722 Y110.955 E35.56155
G1 X63.722 Y109.092 E35.63931
G1 F958.1 X63.722 Y107.229 E35.71692
G1 F960 X63.722 Y105.366 E35.79438
G1 X63.722 Y103.503 E35.87183
G1 F885.6 X63.764 Y103.293 E35.88148
G1 F882.4 X63.927 Y103.251 E35.8891
G1 F954.3 X65.449 Y103.251 E35.95275
G1 F958.1 X66.971 Y103.25 E36.01616
G1 F1066.7 X67.171 Y103.5 E36.02814
G1 F1200 X67.171 Y116.5 E36.46052
G1 F1061.9 X67.015 Y116.749 E36.47156
G1 F1500 E29.97156
G0 F6000 X67.015 Y117
G0 X103.199 Y116.728
G1 F1500 E36.47156
G0 F6000 X103.011 Y116.54
;TYPE:SKIN
G1 F1200 X103.011 Y110 E36.68908
G1 X103.011 Y103.46 E36.9066
G1 X67.931 Y103.461 E38.07337
G1 X67.931 Y116.54 E38.50838
G1 X103.011 Y116.54 E39.67515
G0 F6000 X103.271 Y116.54
G0 X103.271 Y103.942
G0 X102.811 Y103.942
G1 F1200 X102.528 Y103.659 E39.68846
G0 F6000 X101.962 Y103.659
G1 F1200 X102.811 Y104.508 E39.72839
G0 F6000 X102.811 Y105.073
G1 F1200 X101.396 Y103.659 E39.79492
G0 F6000 X100.831 Y103.659
G1 F1200 X102.811 Y105.639 E39.88806
G0 F6000 X102.811 Y106.205
G1 F1200 X100.265 Y103.659 E40.00781
G0 F6000 X99.699 Y103.659
G1 F1200 X102.811 Y106.771 E40.15419
G0 F6000 X102.811 Y107.336
G1 F1200 X99.134 Y103.659 E40.32715
G0 F6000 X98.568 Y103.659
G1 F1200 X102.811 Y107.902 E40.52673
G0 F6000 X102.811 Y108.468
G1 F1200 X98.002 Y103.659 E40.75293
G0 F6000 X97.437 Y103.659
G1 F1200 X102.811 Y109.033 E41.0057
G0 F6000 X102.811 Y109.599
G1 F1200 X96.871 Y103.659 E41.2851
G0 F6000 X96.305 Y103.659
G1 F1200 X102.811 Y110.165 E41.59112
G0 F6000 X102.811 Y110.73
G1 F1200 X95.74 Y103.659 E41.92372
G0 F6000 X95.174 Y103.659
G1 F1200 X102.811 Y111.296 E42.28294
G0 F6000 X102.811 Y111.862
G1 F1200 X94.608 Y103.659 E42.66879
G0 F6000 X94.043 Y103.659
G1 F1200 X102.811 Y112.427 E43.08121
G0 F6000 X102.811 Y112.993
G1 F1200 X93.477 Y103.659 E43.52025
G0 F6000 X92.911 Y103.659
G1 F1200 X102.811 Y113.559 E43.98592
G0 F6000 X102.811 Y114.124
G1 F1200 X92.346 Y103.659 E44.47816
G0 F6000 X91.78 Y103.659
G1 F1200 X102.811 Y114.69 E44.99702
G0 F6000 X102.811 Y115.256
G1 F1200 X91.214 Y103.659 E45.54251
G0 F6000 X90.648 Y103.659
G1 F1200 X102.811 Y115.821 E46.1146
G0 F6000 X102.762 Y116.338
G1 F1200 X90.083 Y103.659 E46.71098
G0 F6000 X89.517 Y103.659
G1 F1200 X102.196 Y116.338 E47.30736
G0 F6000 X101.631 Y116.338
G1 F1200 X88.951 Y103.659 E47.90376
G0 F6000 X88.386 Y103.659
G1 F1200 X101.065 Y116.338 E48.50014
G0 F6000 X100.499 Y116.338
G1 F1200 X87.82 Y103.659 E49.09653
G0 F6000 X87.254 Y103.659
G1 F1200 X99.933 Y116.338 E49.69291
G0 F6000 X99.368 Y116.338
G1 F1200 X86.689 Y103.659 E50.28929
G0 F6000 X86.123 Y103.659
G1 F1200 X98.802 Y116.338 E50.88567
G0 F6000 X98.236 Y116.338
G1 F1200 X85.557 Y103.659 E51.48205
G0 F6000 X84.992 Y103.659
G1 F1200 X97.671 Y116.338 E52.07843
G0 F6000 X97.105 Y116.338
