;FLAVOR:Marlin
;TIME:12710
;Filament used: 8.99878m
;Layer height: 0.2
;MINX:54.837
;MINY:50.335
;MINZ:0.2
;MAXX:165.153
;MAXY:169.753
;MAXZ:17.2
;Generated with Cura_SteamEngine main
M82 ;absolute extrusion mode
; Ender 3 Custom Start G-code
G92 E0 ; Reset Extruder
G28 ; Home all axes
M104 S175 ; Start heating up the nozzle most of the way
M190 S60 ; Start heating the bed, wait until target temperature reached
M109 S200 ; Finish heating the nozzle
G1 Z2.0 F3000 ; Move Z Axis up little to prevent scratching of Heat Bed
G1 X0.1 Y20 Z0.3 F5000.0 ; Move to start position
G1 X0.1 Y200.0 Z0.3 F1500.0 E15 ; Draw the first line
G1 X0.4 Y200.0 Z0.3 F5000.0 ; Move to side a little
G1 X0.4 Y20 Z0.3 F1500.0 E30 ; Draw the second line
G92 E0 ; Reset Extruder
G1 Z2.0 F3000 ; Move Z Axis up little to prevent scratching of Heat Bed
G1 X5 Y20 Z0.3 F5000.0 ; Move over to prevent blob squish
G92 E0
G92 E0
G1 F1500 E-6.5
;LAYER_COUNT:86
;LAYER:0
M107
G0 F6000 X57.994 Y54.368 Z0.2
G0 X54.837 Y61.977
;TYPE:SKIRT
G1 F1500 E0
G1 F1200 X54.885 Y61.04 E0.03121
G1 X55.014 Y60.111 E0.0624
G1 X55.221 Y59.196 E0.0936
G1 X55.506 Y58.303 E0.12478
G1 X55.865 Y57.436 E0.15599
G1 X56.297 Y56.604 E0.18717
G1 X56.798 Y55.811 E0.21837
G1 X57.365 Y55.064 E0.24956
G1 X57.994 Y54.368 E0.28076
G1 X58.68 Y53.728 E0.31197
G1 X59.417 Y53.149 E0.34314
G1 X60.202 Y52.635 E0.37435
G1 X61.027 Y52.189 E0.40554
G1 X61.887 Y51.815 E0.43673
G1 X63.01 Y51.451 E0.476
G1 X63.714 Y51.272 E0.50016
G1 X64.739 Y51.039 E0.53512
G1 X65.151 Y50.953 E0.54912
G1 X66.181 Y50.76 E0.58397
G1 X67.093 Y50.614 E0.61469
G1 X67.599 Y50.548 E0.63166
G1 X68.424 Y50.46 E0.65926
G1 X68.933 Y50.418 E0.67624
G1 X69.701 Y50.372 E0.70183
G1 X70.225 Y50.353 E0.71927
G1 X71.706 Y50.335 E0.76854
G1 X73.362 Y50.349 E0.82362
G1 X74.299 Y50.398 E0.85482
G1 X75.274 Y50.535 E0.88757
G1 X75.809 Y50.635 E0.90567
G1 X76.37 Y50.755 E0.92475
G1 X76.925 Y50.889 E0.94374
G1 X77.595 Y51.074 E0.96686
G1 X78.78 Y51.447 E1.00818
G1 X79.453 Y51.681 E1.03188
G1 X80.504 Y52.066 E1.06911
G1 X82.837 Y52.849 E1.15096
G1 X85.28 Y53.592 E1.23589
G1 X87.703 Y54.255 E1.31944
G1 X90.167 Y54.856 E1.40379
G1 X92.637 Y55.383 E1.4878
G1 X95.077 Y55.833 E1.57032
G1 X97.58 Y56.222 E1.65457
G1 X100.059 Y56.536 E1.73768
G1 X102.587 Y56.783 E1.82216
G1 X105.087 Y56.956 E1.90551
G1 X107.617 Y57.06 E1.98973
G1 X110.106 Y57.092 E2.07252
G1 X112.664 Y57.052 E2.15761
G1 X115.149 Y56.943 E2.24034
G1 X117.667 Y56.761 E2.32431
G1 X120.152 Y56.51 E2.40738
G1 X122.66 Y56.186 E2.49149
G1 X125.157 Y55.791 E2.57557
G1 X127.636 Y55.325 E2.65947
G1 X130.082 Y54.795 E2.74271
G1 X132.506 Y54.197 E2.82575
G1 X134.933 Y53.526 E2.9095
G1 X137.393 Y52.769 E2.99511
G1 X139.549 Y52.042 E3.07079
G1 X141.506 Y51.354 E3.13978
G1 X142.198 Y51.136 E3.16391
G1 X142.998 Y50.913 E3.19153
G1 X143.646 Y50.753 E3.21373
G1 X144.173 Y50.64 E3.23166
G1 X144.863 Y50.512 E3.255
G1 X145.793 Y50.39 E3.2862
G1 X146.677 Y50.347 E3.31564
G1 X148.046 Y50.338 E3.36117
G1 X149.561 Y50.35 E3.41156
G1 X150.576 Y50.387 E3.44534
G1 X151.086 Y50.421 E3.46234
G1 X151.926 Y50.496 E3.49039
G1 X152.445 Y50.554 E3.50776
G1 X153.195 Y50.657 E3.53294
G1 X153.734 Y50.745 E3.5511
G1 X154.886 Y50.962 E3.59009
G1 X155.277 Y51.043 E3.60338
G1 X156.307 Y51.276 E3.6385
G1 X156.979 Y51.447 E3.66156
G1 X157.875 Y51.725 E3.69276
G1 X158.743 Y52.08 E3.72396
G1 X159.578 Y52.506 E3.75513
G1 X160.374 Y53.003 E3.78634
G1 X161.124 Y53.565 E3.81752
G1 X161.824 Y54.19 E3.84873
G1 X162.468 Y54.871 E3.8799
G1 X163.052 Y55.605 E3.9111
G1 X163.571 Y56.386 E3.94229
G1 X164.022 Y57.209 E3.9735
G1 X164.401 Y58.067 E4.0047
G1 X164.706 Y58.954 E4.0359
G1 X164.934 Y59.863 E4.06707
G1 X165.083 Y60.789 E4.09826
G1 X165.153 Y61.725 E4.12948
G1 X165.144 Y62.662 E4.16065
G1 X165.054 Y63.596 E4.19186
G1 X164.813 Y64.818 E4.23328
G1 X164.48 Y66.136 E4.2785
G1 X164.261 Y66.962 E4.30692
G1 X164.205 Y67.141 E4.31316
G1 X139.885 Y157.909 E7.4386
G1 X139.697 Y158.571 E7.46149
G1 X139.402 Y159.461 E7.49267
G1 X139.033 Y160.324 E7.52389
G1 X138.592 Y161.151 E7.55506
G1 X138.081 Y161.938 E7.58627
G1 X137.506 Y162.679 E7.61747
G1 X136.87 Y163.368 E7.64866
G1 X136.177 Y164 E7.67985
G1 X135.616 Y164.44 E7.70356
G1 X133.649 Y165.881 E7.78466
G1 X132.561 Y166.729 E7.83054
G1 X131.555 Y167.495 E7.8726
G1 X130.785 Y168.031 E7.9038
G1 X129.973 Y168.499 E7.93498
G1 X129.123 Y168.896 E7.96618
G1 X128.243 Y169.22 E7.99737
G1 X127.338 Y169.467 E8.02857
G1 X126.416 Y169.637 E8.05975
G1 X125.209 Y169.738 E8.10004
G1 X124.545 Y169.753 E8.12213
G1 X95.657 Y169.752 E9.08295
G1 X94.954 Y169.742 E9.10633
G1 X94.017 Y169.689 E9.13754
G1 X93.089 Y169.556 E9.16873
G1 X92.175 Y169.344 E9.19993
G1 X91.283 Y169.056 E9.23111
G1 X90.418 Y168.692 E9.26232
G1 X89.588 Y168.256 E9.2935
G1 X88.797 Y167.751 E9.32472
G1 X88.324 Y167.4 E9.34431
G1 X87.874 Y167.047 E9.36333
G1 X85.759 Y165.438 E9.45172
G1 X84.422 Y164.467 E9.50668
G1 X83.687 Y163.884 E9.53788
G1 X83.005 Y163.241 E9.56906
G1 X82.38 Y162.542 E9.60024
G1 X81.816 Y161.792 E9.63145
G1 X81.319 Y160.997 E9.66264
G1 X80.891 Y160.162 E9.69385
G1 X80.536 Y159.294 E9.72504
G1 X80.302 Y158.566 E9.75047
G1 X80.103 Y157.864 E9.77474
G1 X55.305 Y65.309 E12.96171
G1 X55.168 Y64.764 E12.9804
G1 X54.978 Y63.845 E13.01161
G1 X54.868 Y62.914 E13.04279
G1 X54.837 Y61.977 E13.07397
G0 F6000 X55.237 Y61.93
G1 F1200 X55.29 Y61.011 E13.10459
G1 X55.423 Y60.1 E13.13521
G1 X55.634 Y59.203 E13.16586
G1 X55.923 Y58.329 E13.19648
G1 X56.286 Y57.483 E13.2271
G1 X56.721 Y56.672 E13.25771
G1 X57.225 Y55.901 E13.28834
G1 X57.793 Y55.177 E13.31895
G1 X58.423 Y54.505 E13.34959
G1 X59.108 Y53.891 E13.38018
G1 X59.844 Y53.338 E13.4108
G1 X60.626 Y52.851 E13.44144
G1 X61.446 Y52.434 E13.47204
G1 X62.3 Y52.089 E13.50267
G1 X63.113 Y51.838 E13.53097
G1 X63.802 Y51.662 E13.55462
G1 X64.827 Y51.429 E13.58959
G1 X65.225 Y51.346 E13.60311
G1 X66.255 Y51.153 E13.63796
G1 X67.154 Y51.009 E13.66824
G1 X67.642 Y50.946 E13.68461
G1 X68.467 Y50.858 E13.71221
G1 X68.957 Y50.817 E13.72856
G1 X69.725 Y50.771 E13.75415
G1 X70.23 Y50.753 E13.77096
G1 X71.711 Y50.735 E13.82022
G1 X73.358 Y50.749 E13.875
G1 X74.277 Y50.798 E13.90561
G1 X75.201 Y50.928 E13.93664
G1 X75.736 Y51.028 E13.95475
G1 X76.276 Y51.144 E13.97312
G1 X76.831 Y51.278 E13.99211
G1 X77.477 Y51.456 E14.01439
G1 X78.648 Y51.825 E14.05523
G1 X79.496 Y52.121 E14.0851
G1 X80.376 Y52.444 E14.11628
G1 X82.741 Y53.238 E14.19926
G1 X85.154 Y53.972 E14.28314
G1 X87.617 Y54.646 E14.36807
G1 X90.054 Y55.241 E14.45151
G1 X92.56 Y55.775 E14.53673
G1 X95.009 Y56.227 E14.61956
G1 X97.54 Y56.62 E14.70475
G1 X100.042 Y56.937 E14.78863
G1 X102.522 Y57.18 E14.87151
G1 X105.077 Y57.357 E14.9567
G1 X107.596 Y57.46 E15.04055
G1 X110.107 Y57.492 E15.12407
G1 X112.654 Y57.452 E15.2088
G1 X115.194 Y57.341 E15.29336
G1 X117.7 Y57.16 E15.37693
G1 X120.211 Y56.906 E15.46087
G1 X122.703 Y56.584 E15.54444
G1 X125.223 Y56.185 E15.6293
G1 X127.689 Y55.722 E15.71275
G1 X130.19 Y55.18 E15.79787
G1 X132.604 Y54.585 E15.88056
G1 X135.085 Y53.898 E15.96618
G1 X137.49 Y53.158 E16.04988
G1 X139.637 Y52.434 E16.12524
G1 X141.638 Y51.731 E16.19578
G1 X142.306 Y51.521 E16.21907
G1 X143.106 Y51.298 E16.24669
G1 X143.73 Y51.145 E16.26806
G1 X144.257 Y51.032 E16.28599
G1 X144.932 Y50.906 E16.30882
G1 X145.845 Y50.787 E16.33945
G1 X146.68 Y50.747 E16.36725
G1 X148.043 Y50.738 E16.41259
G1 X149.558 Y50.75 E16.46298
G1 X150.559 Y50.787 E16.49629
G1 X151.051 Y50.819 E16.51269
G1 X151.891 Y50.894 E16.54074
G1 X152.39 Y50.951 E16.55745
G1 X153.14 Y51.054 E16.58262
G1 X153.66 Y51.138 E16.60014
G1 X154.812 Y51.355 E16.63913
G1 X155.189 Y51.433 E16.65194
G1 X156.219 Y51.666 E16.68706
G1 X156.877 Y51.833 E16.70964
G1 X157.755 Y52.108 E16.74024
G1 X158.607 Y52.457 E16.77087
G1 X159.425 Y52.88 E16.80149
G1 X160.203 Y53.371 E16.83209
G1 X160.936 Y53.929 E16.86273
G1 X161.618 Y54.547 E16.89334
G1 X162.243 Y55.223 E16.92397
G1 X162.808 Y55.95 E16.95459
G1 X163.307 Y56.724 E16.98522
G1 X163.737 Y57.538 E17.01584
G1 X164.095 Y58.386 E17.04645
G1 X164.378 Y59.262 E17.07707
G1 X164.584 Y60.16 E17.10771
G1 X164.711 Y61.071 E17.13831
G1 X164.759 Y61.991 E17.16895
G1 X164.726 Y62.911 E17.19957
G1 X164.614 Y63.825 E17.23019
G1 X164.425 Y64.718 E17.26055
G1 X164.123 Y65.894 E17.30094
G1 X164.093 Y66.034 E17.3057
G1 X163.874 Y66.86 E17.33412
G1 X163.822 Y67.025 E17.33988
G1 X139.5 Y157.8 E20.46556
G1 X139.312 Y158.462 E20.48845
G1 X139.022 Y159.336 E20.51908
G1 X138.658 Y160.181 E20.54968
G1 X138.221 Y160.992 E20.58032
G1 X137.716 Y161.761 E20.61092
G1 X137.146 Y162.484 E20.64154
G1 X136.515 Y163.155 E20.67218
G1 X135.829 Y163.769 E20.7028
G1 X135.379 Y164.117 E20.72172
G1 X133.433 Y165.543 E20.80196
G1 X132.319 Y166.411 E20.84893
G1 X131.313 Y167.177 E20.89098
G1 X130.557 Y167.702 E20.9216
G1 X129.758 Y168.16 E20.95223
G1 X128.922 Y168.546 E20.98286
G1 X128.056 Y168.859 E21.01348
G1 X127.167 Y169.096 E21.04408
G1 X126.26 Y169.254 E21.0747
G1 X125.197 Y169.339 E21.11017
G1 X124.545 Y169.353 E21.13186
G1 X95.662 Y169.352 E22.09252
G1 X94.959 Y169.342 E22.1159
G1 X94.04 Y169.289 E22.14652
G1 X93.129 Y169.156 E22.17714
G1 X92.233 Y168.945 E22.20775
G1 X91.359 Y168.657 E22.23836
G1 X90.512 Y168.294 E22.26901
G1 X89.701 Y167.859 E22.29962
G1 X88.571 Y167.086 E22.34516
G1 X88.069 Y166.692 E22.36638
G1 X86.003 Y165.12 E22.45273
G1 X84.657 Y164.143 E22.50804
G1 X83.936 Y163.571 E22.53866
G1 X83.268 Y162.938 E22.56926
G1 X82.657 Y162.249 E22.59989
G1 X82.108 Y161.51 E22.63051
G1 X81.626 Y160.726 E22.66112
G1 X81.213 Y159.903 E22.69175
G1 X80.873 Y159.047 E22.72238
G1 X80.687 Y158.457 E22.74296
G1 X80.447 Y157.607 E22.77234
G1 X55.693 Y65.211 E25.95382
G1 X55.556 Y64.666 E25.97251
G1 X55.37 Y63.764 E26.00314
G1 X55.264 Y62.85 E26.03374
G1 X55.237 Y61.93 E26.06436
G0 F6000 X55.638 Y61.884
G1 F1200 X55.695 Y60.983 E26.09438
G1 X55.832 Y60.09 E26.12443
G1 X56.048 Y59.213 E26.15447
G1 X56.34 Y58.358 E26.18452
G1 X56.707 Y57.533 E26.21455
G1 X57.145 Y56.743 E26.2446
G1 X57.651 Y55.995 E26.27463
G1 X58.222 Y55.295 E26.30468
G1 X58.852 Y54.648 E26.33472
G1 X59.537 Y54.06 E26.36474
G1 X60.271 Y53.534 E26.39478
G1 X61.049 Y53.075 E26.42482
G1 X61.864 Y52.687 E26.45484
G1 X62.711 Y52.373 E26.48489
G1 X63.216 Y52.224 E26.5024
G1 X63.891 Y52.052 E26.52557
G1 X65.298 Y51.739 E26.57351
G1 X66.328 Y51.546 E26.60836
G1 X67.215 Y51.405 E26.63823
G1 X67.684 Y51.344 E26.65396
G1 X68.509 Y51.256 E26.68156
G1 X68.981 Y51.216 E26.69732
G1 X69.749 Y51.17 E26.7229
G1 X70.235 Y51.153 E26.73908
G1 X71.716 Y51.135 E26.78834
G1 X73.354 Y51.149 E26.84282
G1 X74.256 Y51.197 E26.87287
G1 X75.127 Y51.322 E26.90213
G1 X75.662 Y51.422 E26.92023
G1 X76.182 Y51.533 E26.93792
G1 X76.737 Y51.667 E26.95691
G1 X77.358 Y51.838 E26.97833
G1 X78.517 Y52.203 E27.01875
G1 X79.358 Y52.497 E27.04838
G1 X80.216 Y52.812 E27.07878
G1 X82.634 Y53.624 E27.16362
G1 X85.046 Y54.358 E27.24747
G1 X87.488 Y55.026 E27.33168
G1 X89.98 Y55.634 E27.41699
G1 X92.503 Y56.172 E27.50279
G1 X94.947 Y56.623 E27.58545
G1 X97.465 Y57.014 E27.67021
G1 X99.989 Y57.333 E27.75482
G1 X102.489 Y57.578 E27.83837
G1 X105.071 Y57.757 E27.92446
G1 X107.574 Y57.86 E28.00778
G1 X110.108 Y57.892 E28.09206
G1 X112.677 Y57.852 E28.17752
G1 X115.207 Y57.741 E28.26175
G1 X117.733 Y57.558 E28.34598
G1 X120.231 Y57.306 E28.42949
G1 X122.78 Y56.976 E28.51498
G1 X125.293 Y56.579 E28.5996
G1 X127.776 Y56.113 E28.68362
G1 X130.266 Y55.573 E28.76837
G1 X132.734 Y54.965 E28.85291
G1 X135.167 Y54.291 E28.93688
G1 X137.631 Y53.533 E29.02262
G1 X139.817 Y52.796 E29.09935
G1 X141.771 Y52.109 E29.16824
G1 X142.413 Y51.907 E29.19062
G1 X143.213 Y51.684 E29.21824
G1 X143.814 Y51.536 E29.23883
G1 X144.341 Y51.423 E29.25676
G1 X145.001 Y51.3 E29.27909
G1 X145.896 Y51.184 E29.3091
G1 X146.683 Y51.147 E29.33531
G1 X148.04 Y51.138 E29.38044
G1 X149.555 Y51.15 E29.43083
G1 X150.542 Y51.186 E29.46368
G1 X151.015 Y51.217 E29.47945
G1 X151.855 Y51.292 E29.5075
G1 X152.336 Y51.347 E29.5236
G1 X153.086 Y51.45 E29.54878
G1 X153.586 Y51.531 E29.56563
G1 X155.101 Y51.823 E29.61694
G1 X156.131 Y52.056 E29.65207
G1 X156.774 Y52.22 E29.67414
G1 X157.636 Y52.49 E29.70418
G1 X158.47 Y52.835 E29.7342
G1 X159.271 Y53.253 E29.76425
G1 X160.032 Y53.739 E29.79428
G1 X160.746 Y54.291 E29.8243
G1 X161.409 Y54.905 E29.85436
G1 X162.016 Y55.574 E29.8844
G1 X162.56 Y56.295 E29.91444
G1 X163.039 Y57.06 E29.94446
G1 X163.448 Y57.865 E29.97449
G1 X163.784 Y58.704 E30.00455
G1 X164.045 Y59.568 E30.03457
G1 X164.228 Y60.453 E30.06463
G1 X164.333 Y61.35 E30.09467
G1 X164.358 Y62.252 E30.12468
G1 X164.302 Y63.154 E30.15474
G1 X164.167 Y64.047 E30.18478
G1 X164.038 Y64.619 E30.20428
G1 X163.706 Y65.931 E30.24929
G1 X163.487 Y66.757 E30.27772
G1 X163.437 Y66.918 E30.28332
G1 X139.115 Y157.69 E33.40891
G1 X138.927 Y158.352 E33.4318
G1 X138.642 Y159.209 E33.46184
G1 X138.282 Y160.038 E33.4919
G1 X137.851 Y160.831 E33.52192
G1 X137.351 Y161.583 E33.55195
G1 X136.786 Y162.288 E33.582
G1 X136.162 Y162.94 E33.61202
G1 X135.143 Y163.794 E33.65624
G1 X133.18 Y165.232 E33.73718
G1 X132.076 Y166.092 E33.78372
G1 X131.07 Y166.858 E33.82578
G1 X130.328 Y167.373 E33.85582
G1 X129.544 Y167.82 E33.88583
G1 X128.722 Y168.196 E33.9159
G1 X127.871 Y168.498 E33.94593
G1 X126.997 Y168.723 E33.97595
G1 X126.106 Y168.87 E34.00598
G1 X125.186 Y168.939 E34.03667
G1 X124.545 Y168.953 E34.05799
G1 X95.668 Y168.952 E35.01845
G1 X94.965 Y168.942 E35.04183
G1 X94.063 Y168.889 E35.07188
G1 X93.17 Y168.757 E35.10191
G1 X92.292 Y168.546 E35.13194
G1 X91.436 Y168.258 E35.16198
G1 X90.609 Y167.896 E35.19201
G1 X89.817 Y167.462 E35.22204
G1 X88.818 Y166.771 E35.26245
G1 X88.351 Y166.405 E35.28218
G1 X86.247 Y164.804 E35.37011
G1 X84.892 Y163.82 E35.42581
G1 X84.186 Y163.257 E35.45585
G1 X83.531 Y162.635 E35.48589
G1 X82.935 Y161.956 E35.51594
G1 X82.401 Y161.228 E35.54597
G1 X81.933 Y160.456 E35.57599
G1 X81.536 Y159.645 E35.60603
G1 X81.212 Y158.802 E35.63606
G1 X81.072 Y158.348 E35.65187
G1 X80.873 Y157.646 E35.67613
G1 X56.081 Y65.114 E38.86231
G1 X55.944 Y64.569 E38.881
G1 X55.763 Y63.684 E38.91105
G1 X55.66 Y62.787 E38.94108
G1 X55.638 Y61.884 E38.97112
G1 F1500 E32.47112
G0 F6000 X65.234 Y62.44
G0 X66.069 Y62.218
;TYPE:SUPPORT-INTERFACE
G1 F1500 E38.97112
G1 F1200 X66.794 Y62.038 E38.99597
G1 X67.613 Y61.868 E39.02379
G1 X68.515 Y61.717 E39.05421
G1 X69.355 Y61.614 E39.08235
G1 X69.355 Y61.613 E39.08239
G1 X70.116 Y61.557 E39.10777
G1 X70.923 Y61.534 E39.13462
G1 X72.86 Y61.585 E39.19906
G1 X73.246 Y61.538 E39.212
G1 X73.851 Y61.656 E39.2325
G1 X74.568 Y61.841 E39.25713
G1 X75.232 Y62.061 E39.28039
G1 X75.842 Y62.307 E39.30227
G1 X76.502 Y62.628 E39.32668
G1 X77.039 Y62.931 E39.34719
G1 X77.646 Y63.33 E39.37135
G1 X78.169 Y63.728 E39.39321
G1 X78.71 Y64.2 E39.41709
G1 X79.22 Y64.7 E39.44084
G1 X79.702 Y65.232 E39.46472
G1 X80.157 Y65.798 E39.48887
G1 X80.618 Y66.448 E39.51538
G1 X81.028 Y67.088 E39.54066
G1 X81.425 Y67.787 E39.56739
G1 X81.823 Y68.567 E39.59652
G1 X81.955 Y68.857 E39.60712
G1 X81.98 Y69.248 E39.62015
G1 X82.703 Y71.248 E39.69088
G1 X82.977 Y72.095 E39.72049
G1 X83.251 Y73.058 E39.75379
G1 X95.966 Y120.503 E41.3875
G1 X96.834 Y122.669 E41.46511
G1 X97.017 Y123.083 E41.48017
G1 X97.205 Y123.455 E41.49403
G1 X97.391 Y123.781 E41.50651
G1 X98.149 Y124.599 E41.54361
G1 X98.207 Y124.677 E41.54684
G1 X98.427 Y124.943 E41.55832
G1 X98.67 Y125.21 E41.57033
G1 X98.91 Y125.447 E41.58155
G1 X99.149 Y125.662 E41.59224
G1 X99.427 Y125.886 E41.60411
G1 X99.693 Y126.08 E41.61506
G1 X99.98 Y126.265 E41.62642
G1 X100.262 Y126.429 E41.63727
G1 X100.581 Y126.593 E41.6492
G1 X100.883 Y126.731 E41.66024
G1 X101.224 Y126.867 E41.67245
G1 X101.551 Y126.98 E41.68396
G1 X101.912 Y127.086 E41.69648
G1 X102.256 Y127.171 E41.70826
G1 X102.632 Y127.248 E41.72103
G1 X102.808 Y127.276 E41.72695
G1 X104.122 Y127.598 E41.77195
G1 X104.798 Y127.608 E41.79444
G1 X115.6 Y127.603 E42.15371
G1 X115.874 Y127.603 E42.16283
G1 X117.203 Y127.275 E42.20836
G1 X117.369 Y127.249 E42.21394
G1 X117.745 Y127.172 E42.22671
G1 X118.089 Y127.087 E42.23849
G1 X118.45 Y126.981 E42.25101
G1 X118.777 Y126.868 E42.26252
