;FLAVOR:Marlin
;TIME:4683
;Filament used: 2.50476m
;Layer height: 0.2
;MINX:71.386
;MINY:84.108
;MINZ:0.2
;MAXX:148.57
;MAXY:135.89
;MAXZ:15.6
;Generated with Cura_SteamEngine main
M82 ;absolute extrusion mode
; Ender 3 Custom Start G-code
G92 E0 ; Reset Extruder
G28 ; Home all axes
M104 S175 ; Start heating up the nozzle most of the way
M190 S60 ; Start heating the bed, wait until target temperature reached
M109 S200 ; Finish heating the nozzle
G1 Z2.0 F3000 ; Move Z Axis up little to prevent scratching of Heat Bed
G1 X0.1 Y20 Z0.3 F5000.0 ; Move to start position
G1 X0.1 Y200.0 Z0.3 F1500.0 E15 ; Draw the first line
G1 X0.4 Y200.0 Z0.3 F5000.0 ; Move to side a little
G1 X0.4 Y20 Z0.3 F1500.0 E30 ; Draw the second line
G92 E0 ; Reset Extruder
G1 Z2.0 F3000 ; Move Z Axis up little to prevent scratching of Heat Bed
G1 X5 Y20 Z0.3 F5000.0 ; Move over to prevent blob squish
G92 E0
G92 E0
G1 F1500 E-6.5
;LAYER_COUNT:78
;LAYER:0
M107
G0 F6000 X75.579 Y89.578 Z0.2
G0 X71.386 Y99.961
;TYPE:SKIRT
G1 F1500 E0
G1 F1200 X71.393 Y98.988 E0.03236
G1 X71.416 Y98.059 E0.06327
G1 X71.481 Y97.124 E0.09444
G1 X71.625 Y96.197 E0.12565
G1 X71.848 Y95.286 E0.15684
G1 X72.147 Y94.397 E0.18804
G1 X72.521 Y93.537 E0.21923
G1 X72.967 Y92.712 E0.25042
G1 X73.447 Y91.965 E0.27995
G1 X73.996 Y91.205 E0.31114
G1 X74.608 Y90.495 E0.34231
G1 X75.579 Y89.578 E0.38673
G1 X75.785 Y89.406 E0.39566
G1 X76.53 Y88.836 E0.42686
G1 X77.321 Y88.332 E0.45805
G1 X78.151 Y87.897 E0.48922
G1 X78.714 Y87.651 E0.50966
G1 X79.058 Y87.512 E0.522
G1 X79.942 Y87.198 E0.5532
G1 X81.029 Y86.923 E0.59049
G1 X83.472 Y86.436 E0.67335
G1 X84.398 Y86.292 E0.70451
G1 X85.221 Y86.231 E0.73196
G1 X86.268 Y86.193 E0.76681
G1 X88.877 Y86.06 E0.8537
G1 X91.34 Y85.864 E0.93588
G1 X93.863 Y85.592 E1.02028
G1 X96.371 Y85.249 E1.10447
G1 X98.877 Y84.836 E1.18894
G1 X100.81 Y84.465 E1.25441
G1 X101.435 Y84.338 E1.27562
G1 X102.361 Y84.191 E1.30681
G1 X103.308 Y84.123 E1.33839
G1 X104.055 Y84.108 E1.36324
G1 X105.241 Y84.117 E1.40268
G1 X106.178 Y84.164 E1.43389
G1 X106.993 Y84.271 E1.46123
G1 X109.41 Y84.68 E1.54276
G1 X111.911 Y85.034 E1.62677
G1 X114.392 Y85.315 E1.70982
G1 X116.908 Y85.528 E1.7938
G1 X119.452 Y85.67 E1.87855
G1 X121.7 Y85.735 E1.95335
G1 X122.263 Y85.744 E1.97207
G1 X124.818 Y85.75 E2.05705
G1 X125.828 Y85.723 E2.09066
G1 X127.252 Y85.698 E2.13803
G1 X128.189 Y85.721 E2.1692
G1 X129.094 Y85.82 E2.19948
G1 X130.93 Y86.098 E2.26124
G1 X134.234 Y86.526 E2.37205
G1 X134.846 Y86.614 E2.39262
G1 X137.624 Y87.078 E2.48629
G1 X138.542 Y87.27 E2.51749
G1 X139.44 Y87.539 E2.54867
G1 X140.313 Y87.883 E2.57988
G1 X141.046 Y88.24 E2.60699
G1 X141.863 Y88.701 E2.63819
G1 X142.637 Y89.229 E2.66936
G1 X143.364 Y89.822 E2.70056
G1 X144.038 Y90.475 E2.73177
G1 X144.653 Y91.183 E2.76297
G1 X145.206 Y91.94 E2.79415
G1 X145.693 Y92.742 E2.82535
G1 X146.178 Y93.742 E2.86232
G1 X146.748 Y95.084 E2.91081
G1 X146.852 Y95.308 E2.91903
G1 X147.4 Y96.634 E2.96675
G1 X147.634 Y97.168 E2.98614
G1 X147.973 Y98.042 E3.01732
G1 X148.237 Y98.942 E3.04851
G1 X148.423 Y99.862 E3.07973
G1 X148.53 Y100.793 E3.1109
G1 X148.557 Y101.419 E3.13174
G1 X148.568 Y102.163 E3.15649
G1 X148.569 Y106.399 E3.29738
G1 X148.542 Y108.261 E3.35932
G1 X148.524 Y108.923 E3.38134
G1 X148.526 Y111.468 E3.46599
G1 X148.568 Y113.373 E3.52937
G1 X148.57 Y117.749 E3.67491
G1 X148.557 Y118.601 E3.70325
G1 X148.502 Y119.537 E3.73444
G1 X148.367 Y120.465 E3.76563
G1 X148.153 Y121.378 E3.79682
G1 X147.863 Y122.27 E3.82802
G1 X147.649 Y122.801 E3.84706
G1 X147.137 Y123.98 E3.88981
G1 X146.283 Y126.01 E3.96306
G1 X145.935 Y126.769 E3.99083
G1 X145.432 Y127.681 E4.02547
G1 X144.91 Y128.461 E4.05669
G1 X144.324 Y129.193 E4.08787
G1 X143.678 Y129.872 E4.11905
G1 X142.976 Y130.494 E4.15024
G1 X142.223 Y131.054 E4.18145
G1 X141.291 Y131.629 E4.21788
G1 X140.346 Y132.104 E4.25305
G1 X139.475 Y132.452 E4.28425
G1 X138.168 Y132.821 E4.32942
G1 X135.345 Y133.434 E4.4255
G1 X134.104 Y133.631 E4.46729
G1 X131.317 Y133.909 E4.56045
G1 X130.357 Y134.039 E4.59267
G1 X129.912 Y134.08 E4.60753
G1 X128.869 Y134.211 E4.6425
G1 X127.934 Y134.288 E4.6737
G1 X127.32 Y134.296 E4.69412
G1 X126.454 Y134.282 E4.72293
G1 X125.389 Y134.251 E4.75837
G1 X122.78 Y134.247 E4.84514
G1 X122.069 Y134.259 E4.8688
G1 X119.37 Y134.335 E4.9586
G1 X116.887 Y134.476 E5.04132
G1 X114.397 Y134.688 E5.12444
G1 X111.864 Y134.976 E5.20923
G1 X109.356 Y135.333 E5.29348
G1 X107.054 Y135.718 E5.37111
G1 X106.123 Y135.833 E5.40231
G1 X105.474 Y135.866 E5.42393
G1 X104.042 Y135.89 E5.47156
G1 X103.451 Y135.881 E5.49122
G1 X102.514 Y135.826 E5.52244
G1 X101.468 Y135.67 E5.55761
G1 X99.047 Y135.187 E5.63972
G1 X96.566 Y134.762 E5.72344
G1 X94.047 Y134.404 E5.80807
G1 X91.182 Y134.074 E5.90399
G1 X88.646 Y133.854 E5.98865
G1 X86.153 Y133.708 E6.07171
G1 X85.176 Y133.664 E6.10424
G1 X84.046 Y133.554 E6.142
G1 X82.988 Y133.396 E6.17758
G1 X82.81 Y133.362 E6.18361
G1 X81.592 Y133.176 E6.22459
G1 X80.672 Y132.996 E6.25577
G1 X79.647 Y132.695 E6.2913
G1 X79.295 Y132.573 E6.30369
G1 X78.422 Y132.229 E6.3349
G1 X77.583 Y131.811 E6.36608
G1 X76.415 Y131.067 E6.41214
G1 X76.16 Y130.881 E6.42263
G1 X75.426 Y130.297 E6.45383
G1 X74.745 Y129.652 E6.48503
G1 X74.122 Y128.951 E6.51622
G1 X73.704 Y128.406 E6.53907
G1 X73.478 Y128.091 E6.55196
G1 X72.965 Y127.307 E6.58312
G1 X72.52 Y126.481 E6.61433
G1 X72.146 Y125.621 E6.64552
G1 X71.848 Y124.732 E6.6767
G1 X71.626 Y123.82 E6.70792
G1 X71.483 Y122.893 E6.73912
G1 X71.418 Y121.895 E6.77238
G1 X71.395 Y120.614 E6.815
G1 X71.386 Y99.961 E7.50192
G0 F6000 X71.786 Y99.964
G1 F1200 X71.793 Y98.991 E7.53428
G1 X71.816 Y98.07 E7.56492
G1 X71.88 Y97.151 E7.59556
G1 X72.024 Y96.242 E7.62617
G1 X72.246 Y95.349 E7.65678
G1 X72.545 Y94.478 E7.68741
G1 X72.918 Y93.636 E7.71804
G1 X73.563 Y92.515 E7.76106
G1 X73.78 Y92.186 E7.77416
G1 X74.32 Y91.44 E7.80479
G1 X74.923 Y90.744 E7.83542
G1 X75.835 Y89.885 E7.87709
G1 X76.041 Y89.713 E7.88602
G1 X76.773 Y89.155 E7.91663
G1 X77.55 Y88.661 E7.94726
G1 X78.368 Y88.237 E7.9779
G1 X78.864 Y88.022 E7.99588
G1 X79.208 Y87.883 E8.00822
G1 X80.076 Y87.575 E8.03885
G1 X81.107 Y87.316 E8.07421
G1 X83.55 Y86.829 E8.15706
G1 X84.46 Y86.688 E8.18769
G1 X85.235 Y86.631 E8.21354
G1 X86.303 Y86.592 E8.24908
G1 X88.86 Y86.462 E8.33424
G1 X91.414 Y86.259 E8.41945
G1 X93.923 Y85.988 E8.50339
G1 X96.424 Y85.647 E8.58734
G1 X98.932 Y85.232 E8.67189
G1 X101.515 Y84.73 E8.75941
G1 X102.424 Y84.586 E8.79002
G1 X103.319 Y84.522 E8.81987
G1 X104.052 Y84.508 E8.84425
G1 X105.238 Y84.517 E8.8837
G1 X106.158 Y84.564 E8.91434
G1 X106.926 Y84.665 E8.9401
G1 X109.359 Y85.077 E9.02217
G1 X111.846 Y85.429 E9.10572
G1 X114.384 Y85.716 E9.19067
G1 X116.885 Y85.928 E9.27415
G1 X119.382 Y86.067 E9.35733
G1 X121.76 Y86.136 E9.43646
G1 X122.255 Y86.144 E9.45292
G1 X124.828 Y86.15 E9.5385
G1 X125.835 Y86.123 E9.57201
G1 X127.259 Y86.098 E9.61938
G1 X128.179 Y86.121 E9.64998
G1 X129.034 Y86.216 E9.6786
G1 X130.879 Y86.495 E9.74066
G1 X134.188 Y86.923 E9.85163
G1 X134.779 Y87.008 E9.87149
G1 X135.848 Y87.192 E9.90757
G1 X137.559 Y87.473 E9.96524
G1 X138.46 Y87.662 E9.99586
G1 X139.341 Y87.928 E10.02647
G1 X140.196 Y88.269 E10.05708
G1 X140.865 Y88.596 E10.08185
G1 X141.666 Y89.049 E10.11246
G1 X142.425 Y89.57 E10.14308
G1 X143.136 Y90.155 E10.1737
G1 X143.794 Y90.799 E10.20432
G1 X144.393 Y91.498 E10.23494
G1 X144.929 Y92.247 E10.26558
G1 X145.398 Y93.039 E10.29619
G1 X145.81 Y93.898 E10.32788
G1 X146.327 Y95.116 E10.37189
G1 X146.482 Y95.461 E10.38447
G1 X147.031 Y96.79 E10.43229
G1 X147.267 Y97.328 E10.45183
G1 X147.6 Y98.187 E10.48247
G1 X147.856 Y99.071 E10.51308
G1 X148.035 Y99.974 E10.5437
G1 X148.135 Y100.889 E10.57432
G1 X148.157 Y101.425 E10.59216
G1 X148.168 Y102.169 E10.61691
G1 X148.169 Y106.393 E10.7574
G1 X148.142 Y108.25 E10.81917
G1 X148.124 Y108.912 E10.84119
G1 X148.126 Y111.478 E10.92654
G1 X148.168 Y113.373 E10.98958
G1 X148.169 Y117.929 E11.14112
G1 X148.158 Y118.594 E11.16324
G1 X148.102 Y119.513 E11.19386
G1 X147.968 Y120.424 E11.22449
G1 X147.754 Y121.32 E11.25513
G1 X147.464 Y122.193 E11.28572
G1 X147.282 Y122.641 E11.3018
G1 X146.77 Y123.82 E11.34456
G1 X145.914 Y125.855 E11.41799
G1 X145.577 Y126.593 E11.44497
G1 X145.081 Y127.487 E11.47897
G1 X144.567 Y128.251 E11.5096
G1 X143.989 Y128.968 E11.54023
G1 X143.351 Y129.631 E11.57083
G1 X142.658 Y130.237 E11.60145
G1 X141.914 Y130.78 E11.63209
G1 X141.09 Y131.284 E11.66421
G1 X140.166 Y131.746 E11.69857
G1 X139.311 Y132.086 E11.72918
G1 X138.083 Y132.431 E11.7716
G1 X135.26 Y133.044 E11.86768
G1 X134.065 Y133.232 E11.90792
G1 X131.305 Y133.508 E12.00017
G1 X130.303 Y133.643 E12.0338
G1 X129.863 Y133.683 E12.0485
G1 X128.819 Y133.814 E12.08349
G1 X127.902 Y133.889 E12.11409
G1 X127.327 Y133.896 E12.13322
G1 X126.461 Y133.882 E12.16203
G1 X125.401 Y133.851 E12.1973
G1 X122.829 Y133.847 E12.28284
G1 X121.979 Y133.861 E12.31112
G1 X119.372 Y133.935 E12.39786
G1 X116.865 Y134.077 E12.48138
G1 X114.319 Y134.294 E12.56637
G1 X111.834 Y134.576 E12.64955
G1 X109.314 Y134.935 E12.73421
G1 X106.988 Y135.324 E12.81265
G1 X106.074 Y135.436 E12.84328
G1 X105.465 Y135.467 E12.86356
G1 X104.435 Y135.489 E12.89782
G1 X103.457 Y135.481 E12.93035
G1 X102.538 Y135.427 E12.96097
G1 X101.546 Y135.278 E12.99434
G1 X99.114 Y134.793 E13.07682
G1 X96.624 Y134.366 E13.16084
G1 X94.072 Y134.004 E13.24657
G1 X91.229 Y133.676 E13.34176
G1 X88.7 Y133.456 E13.42619
G1 X86.122 Y133.306 E13.51208
G1 X85.194 Y133.264 E13.54298
G1 X84.105 Y133.159 E13.57937
G1 X83.047 Y133.001 E13.61495
G1 X82.872 Y132.967 E13.62087
G1 X81.652 Y132.781 E13.66192
G1 X80.749 Y132.603 E13.69253
G1 X79.778 Y132.317 E13.7262
G1 X79.426 Y132.195 E13.73859
G1 X78.57 Y131.857 E13.7692
G1 X77.746 Y131.445 E13.79984
G1 X76.65 Y130.744 E13.84311
G1 X76.395 Y130.558 E13.85361
G1 X75.676 Y129.984 E13.88421
G1 X75.009 Y129.349 E13.91484
G1 X74.399 Y128.659 E13.94547
G1 X74.029 Y128.173 E13.96579
G1 X73.803 Y127.858 E13.97868
G1 X73.3 Y127.088 E14.00927
G1 X72.865 Y126.276 E14.03991
G1 X72.502 Y125.43 E14.07053
G1 X72.214 Y124.556 E14.10114
G1 X72.003 Y123.659 E14.13179
G1 X71.87 Y122.748 E14.16241
G1 X71.818 Y121.887 E14.1911
G1 X71.795 Y120.614 E14.23344
G1 X71.786 Y99.964 E14.92027
G0 F6000 X72.186 Y99.967
G1 F1200 X72.193 Y98.994 E14.95263
G1 X72.216 Y98.08 E14.98304
G1 X72.279 Y97.18 E15.01305
G1 X72.423 Y96.288 E15.0431
G1 X72.644 Y95.412 E15.07315
G1 X72.943 Y94.56 E15.10318
G1 X73.315 Y93.737 E15.13322
G1 X73.897 Y92.735 E15.17176
G1 X74.114 Y92.406 E15.18487
G1 X74.644 Y91.675 E15.2149
G1 X75.237 Y90.993 E15.24496
G1 X76.092 Y90.192 E15.28393
G1 X76.298 Y90.02 E15.29285
G1 X77.016 Y89.473 E15.32287
G1 X77.78 Y88.991 E15.35292
G1 X78.583 Y88.578 E15.38295
G1 X79.358 Y88.254 E15.41089
G1 X80.209 Y87.953 E15.44091
G1 X81.185 Y87.708 E15.47438
G1 X83.628 Y87.221 E15.55723
G1 X84.521 Y87.084 E15.58728
G1 X85.25 Y87.031 E15.61159
G1 X86.27 Y86.994 E15.64554
G1 X88.912 Y86.859 E15.73353
G1 X91.453 Y86.657 E15.81831
G1 X93.954 Y86.388 E15.90197
G1 X96.467 Y86.044 E15.98634
G1 X98.994 Y85.627 E16.07152
G1 X101.594 Y85.122 E16.15961
G1 X102.486 Y84.982 E16.18964
G1 X103.331 Y84.922 E16.21782
G1 X104.049 Y84.908 E16.24171
G1 X105.235 Y84.917 E16.28115
G1 X106.137 Y84.964 E16.31119
G1 X106.859 Y85.06 E16.33542
G1 X109.272 Y85.468 E16.41682
G1 X111.817 Y85.829 E16.50231
G1 X114.304 Y86.11 E16.58555
G1 X116.866 Y86.327 E16.67107
G1 X119.386 Y86.468 E16.75502
G1 X121.743 Y86.536 E16.83345
G1 X122.248 Y86.544 E16.85024
G1 X124.839 Y86.55 E16.93642
G1 X125.842 Y86.523 E16.96979
G1 X127.266 Y86.498 E17.01716
G1 X128.169 Y86.522 E17.04721
G1 X128.974 Y86.611 E17.07414
G1 X130.823 Y86.891 E17.13634
G1 X133.8 Y87.282 E17.23621
G1 X134.143 Y87.321 E17.24769
G1 X134.711 Y87.402 E17.26677
G1 X135.837 Y87.596 E17.30478
G1 X137.494 Y87.868 E17.36063
G1 X138.378 Y88.054 E17.39067
G1 X139.242 Y88.317 E17.42071
G1 X140.56 Y88.882 E17.46841
G1 X141.469 Y89.398 E17.50317
G1 X142.212 Y89.91 E17.53318
G1 X142.907 Y90.487 E17.56323
G1 X143.548 Y91.123 E17.59326
G1 X144.131 Y91.813 E17.6233
G1 X144.65 Y92.552 E17.65334
G1 X145.102 Y93.334 E17.68338
G1 X145.442 Y94.055 E17.70989
G1 X146.041 Y95.466 E17.76088
G1 X146.113 Y95.614 E17.76635
G1 X146.671 Y96.963 E17.81491
G1 X146.901 Y97.489 E17.834
G1 X147.226 Y98.331 E17.86402
G1 X147.476 Y99.199 E17.89406
G1 X147.648 Y100.086 E17.92411
G1 X147.757 Y101.431 E17.969
G1 X147.769 Y102.323 E17.99867
G1 X147.769 Y106.387 E18.13384
G1 X147.745 Y108.106 E18.19102
G1 X147.724 Y108.903 E18.21753
G1 X147.726 Y111.487 E18.30348
G1 X147.768 Y113.373 E18.36622
G1 X147.769 Y117.923 E18.51756
G1 X147.758 Y118.588 E18.53968
G1 X147.703 Y119.489 E18.5697
G1 X147.568 Y120.382 E18.59974
G1 X147.355 Y121.26 E18.62979
G1 X146.915 Y122.482 E18.67299
G1 X146.449 Y123.554 E18.71186
G1 X145.546 Y125.7 E18.7893
G1 X145.217 Y126.417 E18.81554
G1 X144.731 Y127.293 E18.84886
G1 X144.225 Y128.042 E18.87892
G1 X143.655 Y128.742 E18.90895
G1 X143.025 Y129.389 E18.93898
G1 X142.34 Y129.978 E18.96903
G1 X141.606 Y130.504 E18.99907
G1 X140.887 Y130.938 E19.027
G1 X139.987 Y131.388 E19.06047
G1 X139.147 Y131.719 E19.09049
G1 X137.998 Y132.04 E19.13017
G1 X135.175 Y132.653 E19.22626
G1 X134.025 Y132.834 E19.26498
G1 X131.244 Y133.112 E19.35793
G1 X130.25 Y133.246 E19.39129
G1 X129.827 Y133.284 E19.40542
G1 X128.769 Y133.417 E19.44088
G1 X127.869 Y133.49 E19.47092
G1 X127.333 Y133.496 E19.48875
G1 X126.33 Y133.479 E19.52211
G1 X125.378 Y133.451 E19.55379
G1 X122.824 Y133.447 E19.63873
G1 X121.961 Y133.461 E19.66744
G1 X119.372 Y133.535 E19.75359
G1 X116.809 Y133.68 E19.83897
G1 X114.311 Y133.893 E19.92235
G1 X111.764 Y134.182 E20.00761
G1 X109.236 Y134.542 E20.09254
G1 X106.922 Y134.929 E20.17057
G1 X106.025 Y135.039 E20.20063
G1 X105.457 Y135.067 E20.21955
G1 X104.427 Y135.089 E20.25381
G1 X103.463 Y135.081 E20.28588
G1 X102.561 Y135.027 E20.31593
G1 X101.624 Y134.885 E20.34745
G1 X99.188 Y134.4 E20.43006
G1 X96.671 Y133.968 E20.515
G1 X94.175 Y133.613 E20.59886
G1 X91.274 Y133.279 E20.69598
G1 X88.725 Y133.058 E20.78108
G1 X86.162 Y132.908 E20.86647
G1 X85.212 Y132.865 E20.8981
G1 X84.164 Y132.763 E20.93312
G1 X83.106 Y132.605 E20.9687
G1 X82.953 Y132.575 E20.97389
G1 X81.712 Y132.386 E21.01564
G1 X80.827 Y132.21 E21.04565
G1 X79.909 Y131.94 E21.07748
G1 X79.557 Y131.818 E21.08987
G1 X78.717 Y131.484 E21.11993
G1 X77.911 Y131.078 E21.14995
G1 X76.886 Y130.421 E21.19044
G1 X76.631 Y130.235 E21.20094
G1 X75.926 Y129.671 E21.23097
G1 X75.273 Y129.047 E21.26101
G1 X74.678 Y128.367 E21.29106
G1 X74.354 Y127.94 E21.30889
G1 X74.128 Y127.625 E21.32179
G1 X73.635 Y126.869 E21.3518
G1 X73.21 Y126.072 E21.38185
G1 X72.858 Y125.24 E21.41189
G1 X72.58 Y124.381 E21.44192
G1 X72.38 Y123.5 E21.47197
G1 X72.258 Y122.605 E21.50201
G1 X72.218 Y121.879 E21.5262
G1 X72.195 Y120.613 E21.56831
G1 X72.186 Y99.967 E22.255
G1 F1500 E15.755
G0 F6000 X102.968 Y94.455
G0 X105.815 Y94.454
G0 X120.26 Y96.666
G0 X129.008 Y99.95
G0 X132.154 Y101.549
G1 F1500 E22.255
G1 F1200 X132.486 Y101.537 E22.26605
G1 X132.602 Y101.996 E22.2818
G1 X132.812 Y102.505 E22.30011
G1 X133.091 Y102.972 E22.3182
G1 X133.318 Y103.298 E22.33142
G1 X133.664 Y103.727 E22.34975
G1 X133.769 Y103.824 E22.3545
G1 X133.77 Y104.441 E22.37502
G1 X133.589 Y104.629 E22.3837
G1 X133.331 Y104.933 E22.39696
G1 X133.006 Y105.378 E22.41529
G1 X132.748 Y105.865 E22.43362
G1 X132.564 Y106.384 E22.45194
G1 X132.457 Y106.925 E22.47028
G1 X132.428 Y107.392 E22.48584
G1 X132.428 Y112.588 E22.65866
G1 X132.468 Y113.138 E22.677
G1 X132.587 Y113.676 E22.69533
G1 X132.783 Y114.191 E22.71366
G1 X133.051 Y114.672 E22.73197
G1 X133.326 Y115.041 E22.74728
G1 X133.583 Y115.345 E22.76052
G1 X133.769 Y115.536 E22.76938
G1 X133.77 Y116.126 E22.78901
G1 X133.62 Y116.261 E22.79572
G1 X133.226 Y116.747 E22.81653
G1 X133.001 Y117.077 E22.82981
G1 X132.725 Y117.554 E22.84814
G1 X132.52 Y118.065 E22.86645
G1 X132.467 Y118.284 E22.87395
G1 X132.154 Y118.289 E22.88436
G1 X132.154 Y101.549 E23.44114
G0 F6000 X131.754 Y101.164
G1 F1200 X132.391 Y101.145 E23.46233
G1 X132.831 Y101.095 E23.47706
G1 X132.866 Y101.42 E23.48793
